!!!!SEGMENT: pl-wnifc--13846--109_anonim--piesni-polskie-i-ruskie-ludu-galicyjskiego-109-boze-zneba-wysokoho.krn
!!!kernsource:
!!!cenid: 18xx:3331
!!!COM: Anonim
!!!COM-rismid: pe30004985
!!!CDT:
!!!CNT:
!!!GTL: Pieśni polskie i ruskie ludu galicyjskiego
!!!OTL: 109. Boże zneba wysokoho
!!!PDT: 1833
!!!AGN:
!!!SMS-siglum: PL-Wnifc
!!!SMS-shelfmark: 13846
!!!SMS-shelfwork: 109 G
!!!NIFC-rismid: 1001039526
!!!URL-scan: http://repozytorium.nifc.pl/skany/pl-wnifc-nut--13846
!!!ONB-nifc:
!!!key: F
!!!OMD: Andante
**kern	**kern	**kern	**text
*part2	*part2	*part1	*part1
*staff3	*staff2	*staff1	*staff1
*I"FORTEPIAN.	*I"FORTEPIAN.	*I"GŁOS.	*
*Ipiano	*Ipiano	*Ivox	*
*ICklav	*ICklav	*ICvox	*
*IGacmp	*IGacmp	*IGsolo	*
*clefF4	*clefG2	*clefG2	*
*k[b-]	*k[b-]	*k[b-]	*
*F:	*F:	*F:	*
*M3/4	*M3/4	*M3/4	*
=1-	=1-	=1-	=1-
!LO:TX:t=P:problem=mixed beam	!	!LO:TX:t=E.137.	!
8FF/L	4.cc/ 4.a/	4.cc\	Bo-
8F\J	.	.	.
8F\L	.	.	.
8F\	8a/L 8f/	8a/	-że
8F\	8b-/ 8g/	8b-/	zne-
8F\J	8dd\J 8b-\	8dd\	-ba
=2	=2	=2	=2
(4F\	(16cc\LL 16a\	(16cc\LL	wy-
.	16b-\ 16g\	16b-\	.
.	16a\ 16f\	16a/JJ)	.
.	16g\JJ 16e\)|	16g/	-so-
4B-\ 4C\)	(4g/ 4e/	4g/	-ko-
8A\ 8F\	8f/)	8f/;	-ho
8r;	8r;	8r	.
!!LO:LB:g=original
=3	=3	=3	=3
8F/L 8BB-/	4.dd\ 4.b-\	4.dd\	hlaiń
8F/ 8FF/	.	.	.
8F/ 8BB-/	.	.	.
8F/ 8FF/	8b-/L 8d/	8b-\	na
8D/ 8DD/	8dd\ 8b-\	8dd\	me-
8BB-/J 8BBB-/	8ff\J 8dd\	8ff\	-ne
=4	=4	=4	=4
4FF/ 4FFF/	(16gg\LL 16ee\	(16gg\LL	mo-
.	16ff\ 16dd\	16ff\	.
.	16ee\ 16cc\	16ee\JJ)	.
.	16dd\JJ 16b-\)	16dd\	-ło-
(<4E/ (4EE/^	(8.dd\L 8.b-\	(8.dd\L	-do-
.	16cc\Jk 16a\)	16cc\Jk)	.
8F/) 8FF/;)	8cc\ 8a\;	8cc\;	-ho
8r	8r	8r	.
!!LO:LB:g=original
=5	=5	=5	=5
(8G\L 8E\	8cc\L	8cc\	daj
8C\J)	8cc\J	8cc\	my
.	(>8qe/	.	.
(8B-\L 8G\	4ee\)	4ee\	do-
8C\J)	.	.	.
.	(>8qg/	.	.
(8E\L 8C\	8.gg\^<L)	(8.gg\L	-lu,
8B-\J 8C\)	.	.	.
.	16ee\Jk	16ee\Jk)	.
=6	=6	=6	=6
.	(>8qf/	.	.
(8A\L 8F\	8ff\L)	8ff\L	te-
8c\J 8A\)	8ff\J	8ff\J	-be
8A\L 8F\|	4ff\	4ff\	pro-
8c\J 8A\|	.	.	.
4r	8.a/L 8.f/	(8.a\L	-szu,
.	16dd\Jk 16b-\	16dd\Jk)	.
!!LO:LB:g=original
=7	=7	=7	=7
8FF/L|	4.cc\ 4.a\	4.cc\	daj
8F/ 8FF/|	.	.	.
8F/ 8FF/|	.	.	.
8E-X/ 8FF/|	8a\L 8f\	8a\	my
8D/ 8FF/|	8b-\ 8f\	8b-\	diw-
8BB-/J 8FF/|	8dd\J 8f\	8dd\	-czy-
=8	=8	=8	=8
8FF/L|	(16cc\LL 16a\	(16cc\LL	-nu
.	16b-\ 16g\	16b-\	.
8C/J|	16a\JJ 16f\)	16a/JJ)	.
.	16g/ 16B-/	16g/	cho-
8r	4g/ 4B-/	(4g/	-ro-
8CC/	.	.	.
4FF/	8f/ 8A/	8f/)	-szu!
.	8r	8r	.
==	==	==	==
*-	*-	*-	*-
!!!system-decoration: s1{(s2,s3)}
!!!RDF**kern: > = above
!!!RDF**kern: < = below
!!!RDF**kern: | = vertical stroke
!!!AIN: 1 piano 1 vox
!!!ENC: Marta Lawrence
!!!END: 2021-11-11
